src/main/resources/icons/svelte.svg

<?xml version="1.0" encoding="utf-8"?>
<svg viewBox="0 0 98.1 118" xmlns="http://www.w3.org/2000/svg">
  <path
    d="m91.8 15.6c-10.9-15.7-32.6-20.3-48.2-10.4l-27.5 17.6c-7.5 4.7-12.7 12.4-14.2 21.1-1.3 7.3-.2 14.8 3.3 21.3-2.4 3.6-4 7.6-4.7 11.8-1.6 8.9.5 18.1 5.7 25.4 11 15.7 32.6 20.3 48.2 10.4l27.5-17.5c7.5-4.7 12.7-12.4 14.2-21.1 1.3-7.3.2-14.8-3.3-21.3 2.4-3.6 4-7.6 4.7-11.8 1.7-9-.4-18.2-5.7-25.5"
    fill="#ff3e00"/>
  <path
    d="m40.9 103.9c-8.9 2.3-18.2-1.2-23.4-8.7-3.2-4.4-4.4-9.9-3.5-15.3.2-.9.4-1.7.6-2.6l.5-1.6 1.4 1c3.3 2.4 6.9 4.2 10.8 5.4l1 .3-.1 1c-.1 1.4.3 2.9 1.1 4.1 1.6 2.3 4.4 3.4 7.1 2.7.6-.2 1.2-.4 1.7-.7l27.4-17.5c1.4-.9 2.3-2.2 2.6-3.8s-.1-3.3-1-4.6c-1.6-2.3-4.4-3.3-7.1-2.6-.6.2-1.2.4-1.7.7l-10.5 6.7c-1.7 1.1-3.6 1.9-5.6 2.4-8.9 2.3-18.2-1.2-23.4-8.7-3.1-4.4-4.4-9.9-3.4-15.3.9-5.2 4.1-9.9 8.6-12.7l27.5-17.5c1.7-1.1 3.6-1.9 5.6-2.5 8.9-2.3 18.2 1.2 23.4 8.7 3.2 4.4 4.4 9.9 3.5 15.3-.2.9-.4 1.7-.7 2.6l-.5 1.6-1.4-1c-3.3-2.4-6.9-4.2-10.8-5.4l-1-.3.1-1c.1-1.4-.3-2.9-1.1-4.1-1.6-2.3-4.4-3.3-7.1-2.6-.6.2-1.2.4-1.7.7l-27.4 17.5c-1.4.9-2.3 2.2-2.6 3.8s.1 3.3 1 4.6c1.6 2.3 4.4 3.3 7.1 2.6.6-.2 1.2-.4 1.7-.7l10.5-6.7c1.7-1.1 3.6-1.9 5.6-2.5 8.9-2.3 18.2 1.2 23.4 8.7 3.2 4.4 4.4 9.9 3.5 15.3-.9 5.2-4.1 9.9-8.6 12.7l-27.5 17.5c-1.7 1.1-3.6 1.9-5.6 2.5"
    fill="#fff"/>
</svg>

<?xml version="1.0" encoding="UTF-8" standalone="no"?>
<!DOCTYPE svg PUBLIC "-//W3C//DTD SVG 1.1//EN" "http://www.w3.org/Graphics/SVG/1.1/DTD/svg11.dtd">
<svg width="100%" height="100%" viewBox="0 0 99 118" version="1.1" xmlns="http://www.w3.org/2000/svg" xmlns:xlink="http://www.w3.org/1999/xlink" xml:space="preserve" xmlns:serif="http://www.serif.com/" style="fill-rule:evenodd;clip-rule:evenodd;stroke-linejoin:round;stroke-miterlimit:2;">
    <path d="M91.8,15.6C80.9,-0.1 59.2,-4.7 43.6,5.2L16.1,22.8C8.6,27.5 3.4,35.2 1.9,43.9C0.6,51.2 1.7,58.7 5.2,65.2C2.8,68.8 1.2,72.8 0.5,77C-1.1,85.9 1,95.1 6.2,102.4C17.2,118.1 38.8,122.7 54.4,112.8L81.9,95.3C89.4,90.6 94.6,82.9 96.1,74.2C97.4,66.9 96.3,59.4 92.8,52.9C95.2,49.3 96.8,45.3 97.5,41.1C99.2,32.1 97.1,22.9 91.8,15.6" style="fill:rgb(255,62,0);fill-rule:nonzero;"/>
    <path d="M40.9,103.9C32,106.2 22.7,102.7 17.5,95.2C14.3,90.8 13.1,85.3 14,79.9C14.2,79 14.4,78.2 14.6,77.3L15.1,75.7L16.5,76.7C19.8,79.1 23.4,80.9 27.3,82.1L28.3,82.4L28.2,83.4C28.1,84.8 28.5,86.3 29.3,87.5C30.9,89.8 33.7,90.9 36.4,90.2C37,90 37.6,89.8 38.1,89.5L65.5,72C66.9,71.1 67.8,69.8 68.1,68.2C68.4,66.6 68,64.9 67.1,63.6C65.5,61.3 62.7,60.3 60,61C59.4,61.2 58.8,61.4 58.3,61.7L47.8,68.4C46.1,69.5 44.2,70.3 42.2,70.8C33.3,73.1 24,69.6 18.8,62.1C15.7,57.7 14.4,52.2 15.4,46.8C16.3,41.6 19.5,36.9 24,34.1L51.5,16.6C53.2,15.5 55.1,14.7 57.1,14.1C66,11.8 75.3,15.3 80.5,22.8C83.7,27.2 84.9,32.7 84,38.1C83.8,39 83.6,39.8 83.3,40.7L82.8,42.3L81.4,41.3C78.1,38.9 74.5,37.1 70.6,35.9L69.6,35.6L69.7,34.6C69.8,33.2 69.4,31.7 68.6,30.5C67,28.2 64.2,27.2 61.5,27.9C60.9,28.1 60.3,28.3 59.8,28.6L32.4,46.1C31,47 30.1,48.3 29.8,49.9C29.5,51.5 29.9,53.2 30.8,54.5C32.4,56.8 35.2,57.8 37.9,57.1C38.5,56.9 39.1,56.7 39.6,56.4L50.1,49.7C51.8,48.6 53.7,47.8 55.7,47.2C64.6,44.9 73.9,48.4 79.1,55.9C82.3,60.3 83.5,65.8 82.6,71.2C81.7,76.4 78.5,81.1 74,83.9L46.5,101.4C44.8,102.5 42.9,103.3 40.9,103.9" style="fill:white;fill-rule:nonzero;"/>
</svg>
